!!!!SEGMENT: pl-wnifc--13846--001-039_anonim--piesni-polskie-i-ruskie-ludu-galicyjskiego-39-kochalem-dziewczyne.krn
!!!kernsource:
!!!cenid: 18xx:3261
!!!COM: Anonim
!!!COM-rismID: pe30004985
!!!CDT:
!!!CNT:
!!!GTL: Pieśni polskie i ruskie ludu galicyjskiego
!!!OTL: 39. Kochałem dziewczynę
!!!OMV: 039
!!!PDT: 1833
!!!AGN:
!!!SMS-siglum: PL-Wnifc
!!!SMS-shelfmark: 13846
!!!SMS-shelfwork: 001-039 G
!!!SMS-variant:
!!!SMS-altvar:
!!!NIFC-rismSourceID: 1001036701
!!!NIFC-rismChildID: 1001036923
!!!NIFC-islandoraID: nifc:210326
!!!URL-pdf-islandora: https://repozytorium.nifc.pl/islandora/object/nifc%3A210326/datastream/PDF/view
!!!URL-scan:
!!!IIIF:
!!!ONB-nifc:
!!!OMD: Krakowiak.
!!!AIN: 1 piano 1 vox
!!!key: A
**kern	**kern	**dynam	**kern	**text
*part2	*part2	*part2	*part1	*part1
*staff3	*staff2	*	*staff1	*staff1
*I"Fortepian	*I"Fortepian	*	*I"Głos	*
*Ipiano	*Ipiano	*	*Ivox	*
*ICklav	*ICklav	*	*ICvox	*
*IGacmp	*IGacmp	*	*IGsolo	*
*clefF4	*clefG2	*	*clefG2	*
*k[f#c#g#]	*k[f#c#g#]	*	*k[f#c#g#]	*
*A:	*A:	*	*A:	*
*M2/4	*M2/4	*	*M2/4	*
*>[A,B,B]	*>[A,B,B]	*	*>[A,B,B]	*
=1	=1	=1	=1	=1
*>A	*>A	*	*>A	*
!	!	!	!LO:TX:a:t=D.b.Б\n33	!
*^	*	*	*	*
!LO:N:vis=2	!	!	!	!	!
8E\L	2E/	8e/	.	8e/	Ko-
8d\	.	4e/	sf >	4e/	-cha-
8G#\	.	.	]	.	.
8B\J 8d\	.	(16f#/LL	.	(16f#/LL	-łem
.	.	16g#/JJ)	.	16g#/JJ)	.
=2	=2	=2	=2	=2	=2
4E/	8E\L	8a/'L	.	8a/	dziew-
.	8A\ 8c#\	8b/'J	.	8b/	-czy-
4E/	8E\	8.cc#\L	>	(8.cc#\L	-nę,
.	8A\J 8c#\	.	]	.	.
.	.	16e/'Jk	.	16e/Jk)	.
!!LO:LB:g=original
=3	=3	=3	=3	=3	=3
!LO:N:vis=2	!	!	!	!	!
8E\L	2E/	8e/	.	8e/	ko-
8B\ 8d\	.	4e/	.	4e/	-cha-
8B\ 8d\	.	.	.	.	.
8B\J 8d\	.	(16f#/LL	.	(16f#/LL	-łem
.	.	16g#/JJ)	.	16g#/JJ)	.
=4	=4	=4	=4	=4	=4
!LO:N:vis=2	!	!	!	!	!
8E\L	2E/	8a\`L	.	8a/	ją
8A\ 8c#\	.	8b\J	.	8b/	wie-
8A\ 8c#\	.	4cc#\	.	4cc#/	-le
8c#\J 8e\	.	.	.	.	.
*v	*v	*	*	*	*
!!LO:LB:g=original
=5!|:	=5!|:	=5!|:	=5!|:	=5!|:
*>B	*>B	*>B	*	*>B
*	*^	*	*	*
8AAA/L	8a/	8ryy	.	8a/	ko-
!	!	!	!LO:DY:t=sf.:rj	!	!
8AA/	4dd/	4f#\ 4dd\	sf	4dd\	-cha-
8AA/	.	.	.	.	.
8AA/J	8a/ 8cc#/	8ryy	.	8cc#\	-łem
*	*v	*v	*	*	*
=6	=6	=6	=6	=6
8AAA/L	8g#/`L 8b/	.	8b/	ją
8AA/	8f#/` 8a/	.	8a/	ko-
8AAA/	8e/` 8g#/	.	8.g#/L	-chał
8AA/J	8d/`J 8f#/	.	.	.
.	.	.	16f#/Jk	.
!!LO:LB:g=original
=7	=7	=7	=7	=7
8EE/`L	(16d/LL 16f#/	.	(16f#/LL	ca-
.	32c#/JJk) 32e/	.	16e/JJ)	.
.	32r	.	.	.
8E\^	4c#/ 4e/	.	4e/	-łe
8C#/^	.	.	.	.
8AA/^J	(16B#X/LL 16d#X/	.	(16d#X/LL	trzy
.	16c#/JJ) 16e/	.	16e/JJ)	.
=8	=8	=8	=8	=8
8EE/L	8dn/'L 8f#/	.	8f#/	nie-
8EE/J 8E/	8d/J 8g#/	.	8g#/	-dzie-
4AA/ 4E/	4c#/^ 4a/	.	4a/	-le.
!!LO:LB:g=original
=:|!	=:|!	=:|!	=:|!	=:|!
*-	*-	*-	*-	*-
!!!system-decoration: s1,{(s2,s3)}
!!!RDF**kern: < = below
!!!RDF**kern: > = above
!!!ENC: Emilia Ziętek
!!!END: 2021-10-10
!!!ENC: Marta Chmielewska
!!!END: 2021-11-10
!!!YEC: Copyright 2022 Narodowy Instytut Fryderyka Chopina (https://polishscores.org)
!!!YEM: License CC-BY-4.0 (https://creativecommons.org/licenses/by/4.0)
